melody-of-light/img/icons/product-item-2.svg

<svg width="24" height="24" viewBox="0 0 24 24" fill="none" xmlns="http://www.w3.org/2000/svg">
<path d="M19 9H9C7.89543 9 7 9.89543 7 11V17C7 18.1046 7.89543 19 9 19H19C20.1046 19 21 18.1046 21 17V11C21 9.89543 20.1046 9 19 9Z" stroke="#93939F" stroke-width="1.2" stroke-linecap="round" stroke-linejoin="round"/>
<path d="M14 16C15.1046 16 16 15.1046 16 14C16 12.8954 15.1046 12 14 12C12.8954 12 12 12.8954 12 14C12 15.1046 12.8954 16 14 16Z" stroke="#93939F" stroke-width="1.2" stroke-linecap="round" stroke-linejoin="round"/>
<path d="M17 9V7C17 6.46957 16.7893 5.96086 16.4142 5.58579C16.0391 5.21071 15.5304 5 15 5H5C4.46957 5 3.96086 5.21071 3.58579 5.58579C3.21071 5.96086 3 6.46957 3 7V13C3 13.5304 3.21071 14.0391 3.58579 14.4142C3.96086 14.7893 4.46957 15 5 15H7" stroke="#93939F" stroke-width="1.2" stroke-linecap="round" stroke-linejoin="round"/>
</svg>

<svg width="24" height="24" fill="none" xmlns="http://www.w3.org/2000/svg"><path d="M19 9H9a2 2 0 00-2 2v6a2 2 0 002 2h10a2 2 0 002-2v-6a2 2 0 00-2-2z" stroke="#93939F" stroke-width="1.2" stroke-linecap="round" stroke-linejoin="round"/><path d="M14 16a2 2 0 100-4 2 2 0 000 4zm3-7V7a2 2 0 00-2-2H5a2 2 0 00-2 2v6a2 2 0 002 2h2" stroke="#93939F" stroke-width="1.2" stroke-linecap="round" stroke-linejoin="round"/></svg>
